tools/download-figma-icons/icons/solid/distance.svg

<svg width="24" height="24" viewBox="0 0 24 24" fill="none" xmlns="http://www.w3.org/2000/svg">
<path fill-rule="evenodd" clip-rule="evenodd" d="M19.5 3C20.325 3 21 3.675 21 4.5C21 5.325 20.325 6 19.5 6C18.675 6 18 5.325 18 4.5C18 3.675 18.675 3 19.5 3ZM19.5 0C17.0175 0 15 1.95 15 4.35C15 7.575 18.915 10.26 19.08 10.3725C19.2075 10.455 19.35 10.5 19.5 10.5C19.6425 10.5 19.785 10.4625 19.9125 10.38L19.9231 10.3728C20.2008 10.1849 24 7.61379 24 4.4325C24 1.9875 21.9825 0 19.5 0ZM4.5 13.5C5.325 13.5 6 14.175 6 15C6 15.825 5.325 16.5 4.5 16.5C3.675 16.5 3 15.825 3 15C3 14.175 3.675 13.5 4.5 13.5ZM4.5 21C4.6425 21 4.785 20.9625 4.9125 20.88L4.92314 20.8728C5.20082 20.6849 9 18.1138 9 14.9325C9 12.4875 6.9825 10.5 4.5 10.5C2.0175 10.5 0 12.4875 0 14.9325C0 18.1138 3.79918 20.6849 4.07686 20.8728L4.0875 20.88C4.215 20.9625 4.3575 21 4.5 21ZM19.5 13.5H13.875C12.8407 13.5 12 14.3407 12 15.375C12 16.4093 12.8407 17.25 13.875 17.25H16.875C18.7358 17.25 20.25 18.7642 20.25 20.625C20.25 22.4858 18.7358 24 16.875 24H4.5C4.08525 24 3.75 23.6647 3.75 23.25C3.75 22.8353 4.08525 22.5 4.5 22.5H16.875C17.9093 22.5 18.75 21.6593 18.75 20.625C18.75 19.5907 17.9093 18.75 16.875 18.75H13.875C12.0142 18.75 10.5 17.2358 10.5 15.375C10.5 13.5142 12.0142 12 13.875 12H19.5C19.9147 12 20.25 12.3352 20.25 12.75C20.25 13.1648 19.9147 13.5 19.5 13.5Z" fill="black"/>
</svg>

<svg width="24" height="24" viewBox="0 0 24 24" fill="none" xmlns="http://www.w3.org/2000/svg"><path fill-rule="evenodd" clip-rule="evenodd" d="M19.5 3c.825 0 1.5.675 1.5 1.5S20.325 6 19.5 6 18 5.325 18 4.5 18.675 3 19.5 3Zm0-3C17.017 0 15 1.95 15 4.35c0 3.225 3.915 5.91 4.08 6.023a.767.767 0 0 0 .833.007l.01-.007c.278-.188 4.077-2.76 4.077-5.94C24 1.986 21.983 0 19.5 0Zm-15 13.5c.825 0 1.5.675 1.5 1.5s-.675 1.5-1.5 1.5S3 15.825 3 15s.675-1.5 1.5-1.5Zm0 7.5a.753.753 0 0 0 .412-.12l.011-.007C5.201 20.685 9 18.113 9 14.933 9 12.487 6.982 10.5 4.5 10.5S0 12.488 0 14.932c0 3.182 3.8 5.753 4.077 5.94l.01.008c.128.082.27.12.413.12Zm15-7.5h-5.625c-1.034 0-1.875.84-1.875 1.875 0 1.034.84 1.875 1.875 1.875h3a3.38 3.38 0 0 1 3.375 3.375A3.38 3.38 0 0 1 16.875 24H4.5a.75.75 0 1 1 0-1.5h12.375c1.034 0 1.875-.84 1.875-1.875 0-1.034-.84-1.875-1.875-1.875h-3a3.38 3.38 0 0 1-3.375-3.375A3.38 3.38 0 0 1 13.875 12H19.5a.75.75 0 1 1 0 1.5Z" fill="currentColor"/></svg>
